assets/svg/Car.svg

<svg width="64" height="48" viewBox="0 0 64 48" fill="none" xmlns="http://www.w3.org/2000/svg">
<g clip-path="url(#clip0_88_345)">
<path d="M32.23 16.17C33.92 16.22 35.4 16.33 36.53 16.48C38.63 16.76 42.6 19.79 44.53 21.48H34.8C33.9666 19.7067 33.11 17.9367 32.23 16.17Z" fill="#CED1D6"/>
<path d="M23.07 15.94C21.4408 15.9317 19.8132 16.042 18.2 16.27C15.1845 17.6302 12.2496 19.1627 9.41003 20.86L19.11 21.25C20.41 19.4767 21.73 17.7067 23.07 15.94Z" fill="#CED1D6"/>
<path d="M7.00003 20.31L10.81 20.38C12.53 19.48 16.95 17.25 18.37 16.31C20.1 15.16 30.24 15.4 33.95 15.82C37.38 16.2 41.38 19.62 43.33 20.98C57.11 21.98 58.64 22.69 59.42 25.98C60.69 31.26 54.6 28.92 48.31 28.92H28.31C22.07 28.85 5.72003 26 5.72003 24C5.72003 24 5.69003 20.38 7.00003 20.31Z" fill="#FF8E1F"/>
<path d="M19.74 21.13C17.04 21.13 15.3 20.57 15.3 19.88C15.3 18.66 17.68 17.72 18.83 16.95C19.32 16.62 21.55 16.24 26.23 16.24C28.6168 16.2153 31.0032 16.3121 33.3801 16.53C35.8901 16.81 39.2101 20.06 40.0601 21.13H19.74Z" fill="#081B31"/>
<path d="M29 16.54C30.74 16.54 32.23 16.67 33.33 16.79C35.39 17.02 38.22 19.48 39.47 20.87H29.41C29.3 19.43 29.16 18 29 16.54Z" fill="#CED1D6"/>
<path d="M22.29 16.62C23.29 16.55 24.61 16.51 26.23 16.51H28.43C28.58 17.96 28.72 19.4 28.83 20.85H20.61C21.0816 19.4065 21.6427 17.9937 22.29 16.62Z" fill="#CED1D6"/>
<path d="M5.30005 29.53C5.30005 30.11 13.3 31.33 13.87 31.33H58.37C58.6353 31.33 58.8896 31.2246 59.0772 31.0371C59.2647 30.8496 59.37 30.5952 59.37 30.33V27.76C59.37 27.4948 59.2647 27.2404 59.0772 27.0529C58.8896 26.8654 58.6353 26.76 58.37 26.76L6.37005 24.97C6.10483 24.97 5.85048 25.0754 5.66294 25.2629C5.47541 25.4504 5.37005 25.7048 5.37005 25.97L5.30005 29.53Z" fill="#081B31"/>
<path d="M17.9501 17.78C18.3301 17.57 18.6801 17.37 18.9501 17.18C19.7976 16.8603 20.6944 16.6911 21.6001 16.68C20.9847 18.0439 20.4504 19.443 20.0001 20.87H19.7401C16.7401 20.87 15.5601 20.23 15.5601 19.87C15.5601 19.11 16.8801 18.37 17.9501 17.78Z" fill="#CED1D6"/>
<path d="M4.69995 28.61C4.69995 29.19 12.89 30.41 13.46 30.41H59C59.2652 30.41 59.5195 30.3046 59.7071 30.1171C59.8946 29.9296 60 29.6752 60 29.41V26.84C60 26.5748 59.8946 26.3204 59.7071 26.1329C59.5195 25.9454 59.2652 25.84 59 25.84L5.74995 24C5.48473 24 5.23038 24.1054 5.04284 24.2929C4.85531 24.4804 4.74995 24.7348 4.74995 25L4.69995 28.61Z" fill="#FF8E1F"/>
<path d="M58.82 25.24H55.25C54.83 25.24 54.31 23.13 54.98 23.13C55.65 23.13 58.82 23.63 58.82 25.24Z" fill="#CED1D6"/>
<path d="M13.4599 30.42C13.2599 30.42 12.1399 30.27 10.7599 30.06C10.6264 29.6225 10.559 29.1674 10.5599 28.71C10.5599 27.4688 11.053 26.2784 11.9307 25.4007C12.8084 24.5231 13.9987 24.03 15.2399 24.03C16.4812 24.03 17.6715 24.5231 18.5492 25.4007C19.4269 26.2784 19.9199 27.4688 19.9199 28.71C19.9193 29.2958 19.8074 29.8761 19.5899 30.42H13.4599Z" fill="#081B31"/>
<path d="M45.2601 30.42C45.0426 29.8761 44.9307 29.2958 44.9301 28.71C44.9301 27.4688 45.4231 26.2784 46.3008 25.4007C47.1785 24.5231 48.3688 24.03 49.6101 24.03C50.8513 24.03 52.0416 24.5231 52.9193 25.4007C53.797 26.2784 54.2901 27.4688 54.2901 28.71C54.3022 29.2932 54.2038 29.8734 54.0001 30.42H45.2601Z" fill="#081B31"/>
<path d="M49.61 32.54C51.7253 32.54 53.44 30.8253 53.44 28.71C53.44 26.5948 51.7253 24.88 49.61 24.88C47.4948 24.88 45.78 26.5948 45.78 28.71C45.78 30.8253 47.4948 32.54 49.61 32.54Z" fill="#081B31"/>
<path d="M51.4562 30.547C52.4755 29.5278 52.4755 27.8752 51.4562 26.8559C50.4369 25.8367 48.7844 25.8367 47.7651 26.8559C46.7458 27.8752 46.7458 29.5278 47.7651 30.547C48.7844 31.5663 50.4369 31.5663 51.4562 30.547Z" fill="#CED1D6"/>
<path d="M51.15 27.16C50.15 26.16 50.41 27.81 49.56 28.66C48.71 29.51 47.04 29.23 48.06 30.25C49.08 31.27 48.8 29.6 49.65 28.75C50.5 27.9 52.17 28.18 51.15 27.16Z" fill="#081B31"/>
<path d="M48.06 27.16C47.06 28.16 48.71 27.9 49.56 28.75C50.41 29.6 50.13 31.27 51.15 30.25C52.17 29.23 50.5 29.51 49.65 28.66C48.8 27.81 49.08 26.14 48.06 27.16Z" fill="#081B31"/>
<path d="M50.1127 29.2135C50.39 28.9362 50.39 28.4867 50.1127 28.2094C49.8354 27.9322 49.3859 27.9322 49.1086 28.2094C48.8313 28.4867 48.8313 28.9362 49.1086 29.2135C49.3859 29.4908 49.8354 29.4908 50.1127 29.2135Z" fill="#CED1D6"/>
<path d="M15.24 32.54C17.3553 32.54 19.07 30.8253 19.07 28.71C19.07 26.5948 17.3553 24.88 15.24 24.88C13.1248 24.88 11.41 26.5948 11.41 28.71C11.41 30.8253 13.1248 32.54 15.24 32.54Z" fill="#081B31"/>
<path d="M17.0929 30.5603C18.1122 29.541 18.1122 27.8884 17.0929 26.8692C16.0737 25.8499 14.4211 25.8499 13.4018 26.8692C12.3826 27.8884 12.3826 29.541 13.4018 30.5603C14.4211 31.5795 16.0737 31.5795 17.0929 30.5603Z" fill="#CED1D6"/>
<path d="M16.79 27.16C15.79 26.16 16.05 27.81 15.2 28.66C14.35 29.51 12.68 29.23 13.7 30.25C14.72 31.27 14.44 29.6 15.29 28.75C16.14 27.9 17.81 28.18 16.79 27.16Z" fill="#081B31"/>
<path d="M13.7 27.16C12.7 28.16 14.35 27.9 15.2 28.75C16.05 29.6 15.77 31.27 16.79 30.25C17.81 29.23 16.14 29.51 15.29 28.66C14.44 27.81 14.72 26.14 13.7 27.16Z" fill="#081B31"/>
<path d="M15.7494 29.2168C16.0267 28.9395 16.0267 28.4899 15.7494 28.2127C15.4722 27.9354 15.0226 27.9354 14.7453 28.2127C14.4681 28.4899 14.4681 28.9395 14.7453 29.2168C15.0226 29.494 15.4722 29.494 15.7494 29.2168Z" fill="#CED1D6"/>
<path d="M39.6899 20H40.3799C40.6717 20.0138 40.9521 20.1172 41.183 20.2961C41.4138 20.4751 41.5839 20.7209 41.6699 21C41.7071 21.1182 41.7151 21.2436 41.6935 21.3655C41.6718 21.4875 41.621 21.6024 41.5454 21.7006C41.4699 21.7987 41.3717 21.8772 41.2594 21.9293C41.147 21.9815 41.0237 22.0057 40.8999 22H40.2099L39.6899 20Z" fill="#FFD400"/>
<path d="M29.0601 21.93C29.0601 21.9812 29.0701 22.0319 29.0897 22.0793C29.1093 22.1266 29.1381 22.1696 29.1743 22.2058C29.2105 22.242 29.2535 22.2707 29.3008 22.2903C29.3481 22.3099 29.3988 22.32 29.4501 22.32H32.2001C32.3035 22.32 32.4027 22.2789 32.4758 22.2058C32.549 22.1326 32.5901 22.0334 32.5901 21.93C32.5901 21.8266 32.549 21.7274 32.4758 21.6542C32.4027 21.5811 32.3035 21.54 32.2001 21.54H29.4501C29.3988 21.54 29.3481 21.5501 29.3008 21.5697C29.2535 21.5893 29.2105 21.618 29.1743 21.6542C29.1381 21.6905 29.1093 21.7334 29.0897 21.7808C29.0701 21.8281 29.0601 21.8788 29.0601 21.93Z" fill="#081B31"/>
<path d="M20 21.93C20 22.0334 20.0411 22.1326 20.1142 22.2058C20.1874 22.2789 20.2866 22.32 20.39 22.32H23.14C23.2434 22.32 23.3426 22.2789 23.4158 22.2058C23.4889 22.1326 23.53 22.0334 23.53 21.93C23.53 21.8266 23.4889 21.7274 23.4158 21.6542C23.3426 21.5811 23.2434 21.54 23.14 21.54H20.42C20.3166 21.54 20.2174 21.5811 20.1442 21.6542C20.0711 21.7274 20.03 21.8266 20.03 21.93H20Z" fill="#081B31"/>
<g style="mix-blend-mode:multiply">
<path d="M6.06998 21.37H7.25998C7.32957 21.3661 7.399 21.3801 7.4617 21.4105C7.52441 21.4409 7.57833 21.4868 7.61837 21.5439C7.6584 21.6009 7.68323 21.6672 7.69051 21.7365C7.6978 21.8058 7.68729 21.8759 7.65998 21.94L7.21998 23.42C7.16808 23.5783 7.06975 23.7173 6.93777 23.819C6.8058 23.9206 6.64628 23.9802 6.47998 23.99H5.47998C5.52998 23.42 5.53998 21.91 6.06998 21.37Z" fill="#FF8E1F"/>
</g>
</g>
<defs>
<clipPath id="clip0_88_345">
<rect width="64" height="48" fill="white"/>
</clipPath>
</defs>
</svg>

<svg width="64" height="48" fill="none" xmlns="http://www.w3.org/2000/svg">
    <g clip-path="url(#a)">
        <path d="M32.23 16.17c1.69.05 3.17.16 4.3.31 2.1.28 6.07 3.31 8 5H34.8a258.824 258.824 0 0 0-2.57-5.31ZM23.07 15.94a33.577 33.577 0 0 0-4.87.33 86.271 86.271 0 0 0-8.79 4.59l9.7.39c1.3-1.773 2.62-3.543 3.96-5.31Z" fill="#CED1D6"/>
        <path d="m7 20.31 3.81.07c1.72-.9 6.14-3.13 7.56-4.07 1.73-1.15 11.87-.91 15.58-.49 3.43.38 7.43 3.8 9.38 5.16 13.78 1 15.31 1.71 16.09 5 1.27 5.28-4.82 2.94-11.11 2.94h-20C22.07 28.85 5.72 26 5.72 24c0 0-.03-3.62 1.28-3.69Z" fill="#FF8E1F"/>
        <path d="M19.74 21.13c-2.7 0-4.44-.56-4.44-1.25 0-1.22 2.38-2.16 3.53-2.93.49-.33 2.72-.71 7.4-.71a70.347 70.347 0 0 1 7.15.29c2.51.28 5.83 3.53 6.68 4.6H19.74Z" fill="#081B31"/>
        <path d="M29 16.54c1.74 0 3.23.13 4.33.25 2.06.23 4.89 2.69 6.14 4.08H29.41c-.11-1.44-.25-2.87-.41-4.33ZM22.29 16.62c1-.07 2.32-.11 3.94-.11h2.2c.15 1.45.29 2.89.4 4.34h-8.22a36.56 36.56 0 0 1 1.68-4.23Z" fill="#CED1D6"/>
        <path d="M5.3 29.53c0 .58 8 1.8 8.57 1.8h44.5a1 1 0 0 0 1-1v-2.57a1 1 0 0 0-1-1l-52-1.79a1 1 0 0 0-1 1l-.07 3.56Z" fill="#081B31"/>
        <path d="M17.95 17.78c.38-.21.73-.41 1-.6a7.778 7.778 0 0 1 2.65-.5 37.97 37.97 0 0 0-1.6 4.19h-.26c-3 0-4.18-.64-4.18-1 0-.76 1.32-1.5 2.39-2.09Z" fill="#CED1D6"/>
        <path d="M4.7 28.61c0 .58 8.19 1.8 8.76 1.8H59a1 1 0 0 0 1-1v-2.57a1 1 0 0 0-1-1L5.75 24a1 1 0 0 0-1 1l-.05 3.61Z" fill="#FF8E1F"/>
        <path d="M58.82 25.24h-3.57c-.42 0-.94-2.11-.27-2.11.67 0 3.84.5 3.84 2.11Z" fill="#CED1D6"/>
        <path d="M13.46 30.42c-.2 0-1.32-.15-2.7-.36a4.68 4.68 0 1 1 9.16-1.35c0 .586-.113 1.166-.33 1.71h-6.13ZM45.26 30.42a4.618 4.618 0 0 1-.33-1.71 4.68 4.68 0 1 1 9.36 0 4.622 4.622 0 0 1-.29 1.71h-8.74Z" fill="#081B31"/>
        <path d="M49.61 32.54a3.83 3.83 0 1 0 0-7.66 3.83 3.83 0 0 0 0 7.66Z" fill="#081B31"/>
        <path d="M51.456 30.547a2.61 2.61 0 1 0-3.69-3.691 2.61 2.61 0 0 0 3.69 3.691Z" fill="#CED1D6"/>
        <path d="M51.15 27.16c-1-1-.74.65-1.59 1.5-.85.85-2.52.57-1.5 1.59s.74-.65 1.59-1.5c.85-.85 2.52-.57 1.5-1.59Z" fill="#081B31"/>
        <path d="M48.06 27.16c-1 1 .65.74 1.5 1.59.85.85.57 2.52 1.59 1.5s-.65-.74-1.5-1.59c-.85-.85-.57-2.52-1.59-1.5Z" fill="#081B31"/>
        <path d="M50.113 29.213a.71.71 0 1 0-1.004-1.004.71.71 0 0 0 1.004 1.005Z" fill="#CED1D6"/>
        <path d="M15.24 32.54a3.83 3.83 0 1 0 0-7.66 3.83 3.83 0 0 0 0 7.66Z" fill="#081B31"/>
        <path d="M17.093 30.56a2.61 2.61 0 1 0-3.691-3.69 2.61 2.61 0 0 0 3.69 3.69Z" fill="#CED1D6"/>
        <path d="M16.79 27.16c-1-1-.74.65-1.59 1.5-.85.85-2.52.57-1.5 1.59s.74-.65 1.59-1.5c.85-.85 2.52-.57 1.5-1.59Z" fill="#081B31"/>
        <path d="M13.7 27.16c-1 1 .65.74 1.5 1.59.85.85.57 2.52 1.59 1.5s-.65-.74-1.5-1.59c-.85-.85-.57-2.52-1.59-1.5Z" fill="#081B31"/>
        <path d="M15.75 29.217a.71.71 0 1 0-1.005-1.004.71.71 0 0 0 1.004 1.004Z" fill="#CED1D6"/>
        <path d="M39.69 20h.69a1.42 1.42 0 0 1 1.29 1 .77.77 0 0 1-.77 1h-.69l-.52-2Z" fill="#FFD400"/>
        <path d="M29.06 21.93a.39.39 0 0 0 .39.39h2.75a.39.39 0 0 0 0-.78h-2.75a.39.39 0 0 0-.39.39ZM20 21.93a.39.39 0 0 0 .39.39h2.75a.39.39 0 0 0 0-.78h-2.72a.39.39 0 0 0-.39.39H20Z" fill="#081B31"/>
        <path d="M6.07 21.37h1.19a.41.41 0 0 1 .4.57l-.44 1.48a.83.83 0 0 1-.74.57h-1c.05-.57.06-2.08.59-2.62Z" fill="#FF8E1F" style="mix-blend-mode:multiply"/>
    </g>
    <defs>
        <clipPath id="a">
            <path fill="#fff" d="M0 0h64v48H0z"/>
        </clipPath>
    </defs>
</svg>
